X:270
T:Stacks of Barley
R:Hornpipe
M:2/4
L:1/16
K:G
gf|efed BcdB|A2AG AcBA|G2GA BABd|e2A2 A2gf|
efed BcdB|A2AG AcBA|G2GA BdAc|B2G2 G2:|
|:dc|BGBd g2fg|agfg edBd|g2fg ed^cd|e2A2 A2fg|
a2(3fgf  ed^cd|e2A2 AcBA|GFGA BdAc|B2G2 G2:|
